X:1
T:Title
%%score { ( 1 3 ) | ( 2 4 ) }
L:1/8
Q:1/4=96
M:4/4
K:Ab
V:1 treble nm="Grand Piano"
V:3 treble 
V:2 bass 
V:4 bass 
V:1
 [CA][Ec] [Ec]>[DB] [CA]2 [CE]2 | [DF][FA] [FA]>[DF] [CE]4 | [CE][CA] [EA]>B c2 A2 | ce e>c B4 | %4
w: W.~A.~Ogden * * * * *||||
 ce e>c [EGd]2 [DGB]2 | z4 [=EG]4 | [A,F][A,FA] [A,FA]>[A,DF] [A,CE]2 [CEA]2 | cd c>B [CA]4 | %8
w: ||||
 ce e>c e2 c2 | [EA][EA] [FA]>[DF] [CA]4 | ce e>c e2 c2 | BB B>F B4 | ce e>c [EGd]2 [DGB]2 | %13
w: |||||
 z4 [=EG]4 | [A,F][A,FA] [A,FA]>[A,DF] [A,CE]2 [CEA]2 |[M:8/4] cdc>B [CA]4 z8 |] %16
w: |||
V:2
 [A,,A,][A,,A,] [A,,A,]>[A,,A,] [A,,A,]2 [A,,A,]2 | [D,A,][D,A,] [D,A,]>[D,A,] [A,,A,]4 | %2
 [A,,A,][A,,A,] [C,A,]>[E,G,E] [A,E]2 [A,CE]2 | [A,E][A,CE] [A,CE]>[A,E] [E,G,E]4 | %4
 [A,E][A,CE] [A,CA]>[A,EA][K:bass] E,2 E,2 | F,F, F,>F, z2 B,2 | D,D, D,>D, A,,2 A,,2 | %7
 [E,A,E][E,B,E] [E,A,E]>[E,G,D] [A,,A,]4 | [A,E][A,CA] [A,CA]>[A,E] [A,CE]2[K:bass] [A,E]2 | %9
 [C,A,][C,A,] [D,A,]>[D,A,] [A,,A,]4 | [A,E][A,CA] [A,CA]>[A,E] [A,CE]2[K:bass] [A,E]2 | %11
 [G,B,E][G,B,E] [F,A,=D]>[F,A,D] [E,G,E]4 | [A,E][A,CE] [A,CA]>[A,EA][K:bass] E,2 E,2 | %13
 F,F, F,>F, z2 B,2 | D,D, D,>D, A,,2 A,,2 |[M:8/4] [E,A,E][E,B,E][E,A,E]>[E,G,D] [A,,A,]4 z8 |] %16
V:3
 x8 | x8 | x8 | x8 | x8 | [CFA][CAc] [CAc]>[CFA] C2 z2 | x8 | x8 | x8 | x8 | x8 | x8 | x8 | %13
 [CFA][CAc] [CAc]>[CFA] C2 z2 | x8 |[M:8/4] x16 |] %16
V:4
 x8 | x8 | x8 | x8 | x4[K:bass] x4 | z4 C,4 | x8 | x8 | x6[K:bass] x2 | x8 | x6[K:bass] x2 | x8 | %12
 x4[K:bass] x4 | z4 C,4 | x8 |[M:8/4] x16 |] %16

